material/.icons/material/shovel.svg

<svg xmlns="http://www.w3.org/2000/svg" viewBox="0 0 24 24"><path d="M15.1 1.81l-2.83 2.83c-.77.78-.77 2.05 0 2.83l1.41 1.41-4.55 4.55-2.82-2.83L4.89 12c-4.95 5-1.39 8.5-1.39 8.5S7 24 12 19.09l1.41-1.41-2.8-2.8 4.54-4.54 1.39 1.39c.78.77 2.05.77 2.83 0L22.2 8.9l-7.1-7.09m2.83 8.47L16.55 8.9l-1.44-1.44-1.4-1.4 1.41-1.41 4.23 4.23-1.42 1.4z"/></svg>

<?xml version="1.0" encoding="UTF-8"?><!DOCTYPE svg PUBLIC "-//W3C//DTD SVG 1.1//EN" "http://www.w3.org/Graphics/SVG/1.1/DTD/svg11.dtd"><svg xmlns="http://www.w3.org/2000/svg" xmlns:xlink="http://www.w3.org/1999/xlink" version="1.1" id="mdi-shovel" width="24" height="24" viewBox="0 0 24 24"><path d="M15.1,1.81L12.27,4.64C11.5,5.42 11.5,6.69 12.27,7.47L13.68,8.88L9.13,13.43L6.31,10.6L4.89,12C-0.06,17 3.5,20.5 3.5,20.5C3.5,20.5 7,24 12,19.09L13.41,17.68L10.61,14.88L15.15,10.34L16.54,11.73C17.32,12.5 18.59,12.5 19.37,11.73L22.2,8.9L15.1,1.81M17.93,10.28L16.55,8.9L15.11,7.46L13.71,6.06L15.12,4.65L19.35,8.88L17.93,10.28Z" /></svg>
